!!!!SEGMENT: pl-kk--kk-i-10--001-002_anonim--aliud-de-passione-domini-sanctus.krn
!!!cenid: 16xx:1182
!!!COM: Anonim
!!!COM-rismid: pe30004985
!!!CDT:
!!!CNT:
!!!OTL: Aliud de Passione Domini – Sanctus
!!!PDT:
!!!AGN: Sacred; Mass
!!!SMS-siglum: PL-Kk
!!!SMS-shelfmark: Kk.I.10
!!!SMS-shelfwork: 001-002 M
!!!SMS-variant:
!!!SMS-altvar:
!!!NIFC-rismid: 1001151829
!!!URL-scan: http://repozytorium.nifc.pl/skany/pl-kk-nut--i-10
!!!ONB-nifc: UWAGA: części Mszy: 1. Kyrie, 2. Sanctus 3. Agnus Dei, 4. Deo gratias. A (skan 0004-0006), T (skan 0055-0057), B (skan 0103-0105).
**kern	**text	**kern	**text	**kern	**text
*part3	*part3	*part2	*part2	*part1	*part1
*staff3	*staff3	*staff2	*staff2	*staff1	*staff1
*I"Bassus.	*	*I"Tenor	*	*I"Altus.	*
*I'B	*	*I'T	*	*I'A	*
*clefF4	*	*clefC4	*	*clefC4	*
*k[b-]	*	*k[b-]	*	*k[b-]	*
*F:	*	*F:	*	*F:	*
*M2/1	*	*M2/1	*	*M2/1	*
*met(C|)	*	*met(C|)	*	*met(C|)	*
=1-	=1-	=1-	=1-	=1-	=1-
*	*	*lig	*	*	*
1FF	San-	1F	San-	1A	San-
1C	.	1G	.	2G/	.
.	.	.	.	2E/	.
*	*	*Xlig	*	*	*
=2-	=2-	=2-	=2-	=2-	=2-
*	*	*lig	*	*	*
2F\	.	1A	.	1F	.
2FF/	.	.	.	.	.
2.C/	.	1G	.	1E	.
4BB-/	.	.	.	.	.
*	*	*Xlig	*	*	*
=3-	=3-	=3-	=3-	=3-	=3-
*	*	*lig	*	*	*
2AA/	.	1A	.	2F/	.
2FF/	.	.	.	2A/	.
1GG	.	1B-	.	1G	.
*	*	*Xlig	*	*	*
=4-	=4-	=4-	=4-	=4-	=4-
2.AA/	.	1A	.	1.F	.
4BB-/	.	.	.	.	.
1C	.	1G	.	.	.
.	.	.	.	2E/	.
=5-	=5-	=5-	=5-	=5-	=5-
0FFl;	-ctus.	0Fl;	ctus.	0Fl;	-ctus
!LO:LB:g=original	!	!	!	!	!
=6||	=6||	=6||	=6||	=6||	=6||
*	*	*lig	*	*	*
2r	.	1A	San-	2D/	San-
2D/	San-	.	.	2F#X/	.
1GG	.	1B-	.	1G	.
*	*	*Xlig	*	*	*
=7-	=7-	=7-	=7-	=7-	=7-
*	*	*lig	*	*	*
4AA/	.	1A	.	1.Fny	.
4FF/	.	.	.	.	.
4AA/	.	.	.	.	.
4BB-/	.	.	.	.	.
1C	.	1G	.	.	.
!	!	!	!	!LO:SIC:v:t=custos F	!
.	.	.	.	2E/	.
*	*	*Xlig	*	*	*
!	!	!	!	!LO:LB:g=original	!
=8-	=8-	=8-	=8-	=8-	=8-
*	*	*lig	*	*	*
1FF	.	1F	.	2F/	.
.	.	.	.	2A/	.
!	!	!LO:SIC:v:t=custos F	!	!	!
2.C/	.	1E	.	1G	.
4BB-/	.	.	.	.	.
*	*	*Xlig	*	*	*
!	!	!LO:LB:g=original	!	!	!
=9-	=9-	=9-	=9-	=9-	=9-
2AA/	.	1F	.	1A	.
2FF/	.	.	.	.	.
1BB-l;	-ctus.	1Dl;	-ctus.	1B-l;	-ctus
=10||	=10||	=10||	=10||	=10||	=10||
2BB-/	San-	1F	San-	2B-\	SAn-
2D/	.	.	.	2A/	.
1C	.	1G	-ctus	1c	.
=11-	=11-	=11-	=11-	=11-	=11-
1FF	-ct(us)	1A	Do-	1c	-ct(us)
2.BB-/	Do-	1F	-mi-	2.B-\	Do-
4AA/	.	.	.	4B-\	-mi-
=12-	=12-	=12-	=12-	=12-	=12-
2GG/	-mi-	1G	-nus	1B-	-n(us)
2GG/	-nus	.	.	.	.
2.C/	De-	1G	De-	2c\	De-
.	.	.	.	2c\	-us
4BB-/	.	.	.	.	.
=13-	=13-	=13-	=13-	=13-	=13-
2AA/	.	1A	-us	2c\	Sab-
2FF/	us	.	.	2A\	.
*	*	*lig	*	*	*
!	!	!	!	!LO:SIC:v:t=custos G	!
1BB-	Sab-	1F	Sab-	1B-	.
!	!	!	!	!LO:LB:g=original	!
=14-	=14-	=14-	=14-	=14-	=14-
4GG/	.	1G	.	2G/	.
4AA/	.	.	.	.	.
4BB-/	.	.	.	4A/	.
4GG/	.	.	.	4B-\	.
*	*	*Xlig	*	*	*
2.C/	.	1E	-ba-	1c	-ba-
4C/	-ba-	.	.	.	.
=15-	=15-	=15-	=15-	=15-	=15-
0FFl;	-oth.	0Fl;	-oth.	0cl;<	-oth.
!LO:PB:g=original	!	!LO:LB:g=original	!	!	!
=16||	=16||	=16||	=16||	=16||	=16||
*M2/1	*	*M2/1	*	*M2/1	*
*met(C|)	*	*met(C|)	*	*met(C|)	*
*	*	*lig	*	*	*
0r	.	1F	PLe-	1F	PLe-
.	.	1G	.	1C	-ni
*	*	*Xlig	*	*	*
=17-	=17-	=17-	=17-	=17-	=17-
*	*	*lig	*	*	*
1F	PLe-	1A	.	4F/	ſunt
.	.	.	.	4G/	.
.	.	.	.	4A/	.
.	.	.	.	4B-\	.
1C	-ni	1G	.	1c	cae-
*	*	*Xlig	*	*	*
=18-	=18-	=18-	=18-	=18-	=18-
*	*	*lig	*	*	*
2FF/	ſunt	1A	.	2c\	-li
1F	cae-	.	.	2c\	et
.	.	1B-	.	1c	ter-
2E\	.	.	.	.	.
*	*	*Xlig	*	*	*
=19-	=19-	=19-	=19-	=19-	=19-
*	*	*lig	*	*	*
1F	-li	1A	.	1A	-ra
*	*ij	*	*	*	*
1C	PLe-	1G	.	1c	[ple]-
*	*	*Xlig	*	*	*
!	!	!	!	!LO:LB:g=original	!
=20-	=20-	=20-	=20-	=20-	=20-
2AA/	-ni	1F,<	-ni	1c	-ni
2FF/	ſunt	.	.	.	.
1FF	cae-	1A	ſunt	1c	ſunt
=21-	=21-	=21-	=21-	=21-	=21-
4GG/	.	1G	caeli	1B-	cae-
4AA/	.	.	.	.	.
4BB-/	.	.	.	.	.
!LO:SIC:v:t=custos AA	!	!	!	!	!
4GG/	.	.	.	.	.
!LO:LB:g=original	!	!	!	!	!
*	*	*lig	*	*	*
2AA/	-li	1F	et	2A\	-li
*	*Xij	*	*	*	*
2FF/	et	.	.	2A\	et
=22-	=22-	=22-	=22-	=22-	=22-
1C	ter-	1E	.	1G	ter-
*	*	*Xlig	*	*	*
1FF	-ra	1F	ter-	1A	-ra
=23-	=23-	=23-	=23-	=23-	=23-
4BB-/	glo-	1D,<	-ra	1B-	glo-
4C/	.	.	.	.	.
4D/	.	.	.	.	.
4E\	.	.	.	.	.
*	*	*lig	*	*	*
2F\	.	1F	glo-	1A	-ri-
2FF/	.	.	.	.	.
=24-	=24-	=24-	=24-	=24-	=24-
!	!	!LO:SIC:v:t=custos G	!	!	!
2C/	.	1E	.	2G/	-a
4C/	-ri-	.	.	2G/	tu-
4C/	-a	.	.	.	.
*	*	*Xlig	*	*	*
!	!	!LO:LB:g=original	!	!LO:N:acc=#	!
1GG	tu-	1G	-ri-	1Bn	-a
=25-	=25-	=25-	=25-	=25-	=25-
*	*	*	*	*	*ij
2C/	-a	1G	-a	2c\	glo-
*	*ij	*	*	*	*
2GG/	glo-	.	.	2B-y\	-ri-
2D/	-ri-	1F#X	tu-	1A	-a
2D/	-a	.	.	.	.
=26-	=26-	=26-	=26-	=26-	=26-
!	!	!	!	!LO:N:acc=#	!
1GG	tu-	0Gl;	-a.	1Bn	tu-
1Cl;	-a	.	.	1cl;<	-a
*	*Xij	*	*	*	*Xij
!LO:LB:g=original	!	!	!	!LO:PB:g=original	!
=27||	=27||	=27||	=27||	=27||	=27||
*M3/1	*	*M3/1	*	*M3/1	*
*	*	*lig	*	*	*
!	!	!LO:TX:t=P:problem:Tempus Imperfectum diminutum [konsultacja z J.I.]	!	!	!
!	!	!LO:N:vis=1	!	!	!
1F	O-	0.F	O-	1A	O-
1D	-ſan-	.	.	1A	-ſan-
1D	-na	.	.	1A	-na
=28-	=28-	=28-	=28-	=28-	=28-
!	!	!LO:N:vis=1	!	!	!
0C	in	0.G	.	0c	in
1C	ex-	.	.	1c	ex-
*	*	*Xlig	*	*	*
=29-	=29-	=29-	=29-	=29-	=29-
*	*	*lig	*	*	*
!	!	!LO:N:vis=1	!	!	!
0FF	-cel-	0.F	.	0A	-cel-
1FF	-ſis	.	.	1A	-ſis
=30-	=30-	=30-	=30-	=30-	=30-
*	*ij	*	*	*	*ij
!	!	!LO:N:vis=1	!	!	!
1C	O-	0.E	.	1c	O-
1C	-ſan-	.	.	1c	-ſan-
1C	-na	.	.	1c	-na
*	*	*Xlig	*	*	*
=31-	=31-	=31-	=31-	=31-	=31-
!	!	!LO:N:vis=1	!	!	!
0FF	in	0.F	ſan-	0c	in
1AA	ex-	.	.	1c	ex-
=32-	=32-	=32-	=32-	=32-	=32-
!	!	!LO:N:vis=1	!	!	!
0BB-	-cel-	0.D	-na	0B-	-cel-
!LO:SIC:v:t=custos D	!	!	!	!LO:SIC:v:t=custos f	!
1BB-	-ſis	.	.	1B-	-ſis
*	*Xij	*	*	*	*Xij
!LO:LB:g=original	!	!	!	!LO:LB:g=original	!
=33-	=33-	=33-	=33-	=33-	=33-
!	!	!LO:N:vis=1	!	!	!
00.r	.	0.F	in	1f	O-
.	.	.	.	1f	-ſan-
.	.	.	.	1f	-na
=34-	=34-	=34-	=34-	=34-	=34-
!	!	!LO:N:vis=1	!	!	!
!	!	!LO:SIC:v:t=custos A	!	!	!
.	.	0.G	ex-	0e	in
.	.	.	.	1d	ex-
!	!	!LO:LB:g=original	!	!	!
=35-	=35-	=35-	=35-	=35-	=35-
*	*	*lig	*	*	*
!	!	!LO:N:vis=1	!	!	!
0.r	.	0.A	-cel-	0d	-cel-
.	.	.	.	1c#X	.
=36-	=36-	=36-	=36-	=36-	=36-
!	!	!LO:N:vis=1	!	!	!
1D	O-	0.D	.	0.d	-ſis
1D	-ſan-	.	.	.	.
1D	-na	.	.	.	.
*	*	*Xlig	*	*	*
=37-	=37-	=37-	=37-	=37-	=37-
*	*	*lig	*	*	*ij
!	!	!LO:N:vis=1	!	!	!
0BB-	in	0.F	.	1d	O-
.	.	.	.	1B-	-ſan-
1FF	ex-	.	.	1A	-na
=38-	=38-	=38-	=38-	=38-	=38-
!	!	!LO:N:vis=1	!	!	!
0C	-cel-	0.E	.	1.G	in
.	.	.	.	2F/	ex-
1C	-ſis	.	.	2G/	-cel-
.	.	.	.	2A/	.
*	*	*Xlig	*	*	*
=39-	=39-	=39-	=39-	=39-	=39-
*	*ij	*lig	*	*	*
!	!	!	!	!LO:TX:b:t=P:problem:♯ below	!
!	!	!LO:N:vis=1	!	!LO:N:acc=#	!
1GG	O-	0.G	.	0Bn	.
1GG	-ſan-	.	.	.	.
1GG	-na	.	.	1B	-ſis
*	*	*	*	*	*Xij
=40-	=40-	=40-	=40-	=40-	=40-
!	!	!LO:N:vis=1	!	!	!
0C	in	0.E	.	0G	in
!	!	!	!	!LO:SIC:v:t=custos A	!
1C	ex-	.	.	1G	ex-
*	*	*Xlig	*	*	*
!	!	!	!	!LO:LB:g=original	!
=41-	=41-	=41-	=41-	=41-	=41-
0FF	-cel-	[0.Fl;;	-ſis.	0A	-cel-
1FF	-ſis	.	.	1A	-ſis
=42-	=42-	=42-	=42-	=42-	=42-
*	*Xij	*	*	*	*ij
0BB-	in	0.F_	.	0B-y	in
1AA	ex-	.	.	1cny	ex-
=43-	=43-	=43-	=43-	=43-	=43-
0.BB-	-cel-	0.F_	.	2d\	-cel-
.	.	.	.	2c\	.
.	.	.	.	0B-	.
=44-	=44-	=44-	=44-	=44-	=44-
0.FFl;	-ſis.	0.F]	.	0.Al;	-ſis
*	*	*	*	*	*Xij
=45||	=45||	=45||	=45||	=45||	=45||
*M2/1	*	*M2/1	*	*M2/1	*
*met(C|)	*	*met(C|)	*	*met(C|)	*
*	*	*lig	*	*	*
1rD	.	1F	BE-	0rA	.
1.C	BE-	1G	.	.	.
*	*	*Xlig	*	*	*
=46-	=46-	=46-	=46-	=46-	=46-
*	*	*lig	*	*	*
.	.	1A	.	1rA	.
2D/	.	.	.	.	.
2E\	-ne-	1G	.	2.C/	BE-
2E\	-di-	.	.	.	.
.	.	.	.	4C/	-ne-
*	*	*Xlig	*	*	*
=47-	=47-	=47-	=47-	=47-	=47-
2F\	-ctus	1A	-ne-	[2F/	-di-
2FF/	qui	.	.	2F/]	.
1BB-	ve-	1B-	-di-	1F	-ct(us)
=48-	=48-	=48-	=48-	=48-	=48-
*	*	*lig	*	*	*
!	!	!	!	!LO:SIC:v:t=custos G	!
4FF/	.	1A	.	1F	qui
4GG/	.	.	.	.	.
4AA/	.	.	.	.	.
4BB-/	.	.	.	.	.
!	!	!	!	!LO:LB:g=original	!
1C	.	1G	.	4G/	Ve-
.	.	.	.	4A/	.
.	.	.	.	4B-/	.
.	.	.	.	4c\	.
*	*	*Xlig	*	*	*
=49-	=49-	=49-	=49-	=49-	=49-
!	!	!LO:SIC:v:t=custos A	!	!	!
1FF	-nit	1F	-ctus	2A/	-nit
.	.	.	.	2A/	in
!	!	!LO:LB:g=original	!	!	!
1rD	.	1A	qui	2F/	no-
.	.	.	.	4F/	-mi-
.	.	.	.	4F/	-ne
=50-	=50-	=50-	=50-	=50-	=50-
*	*	*lig	*	*	*
2rC	.	1G	Ve-	4.F/	Do-
.	.	.	.	8C/	.
!LO:SIC:v:t=custos D	!	!	!	!	!
2F\	qui	.	.	4D/	.
.	.	.	.	4E/	-mi-
!LO:LB:g=original	!	!	!	!	!
1D	Ve-	1F	.	1F	-ni
*	*	*Xlig	*	*	*
=51-	=51-	=51-	=51-	=51-	=51-
*	*	*lig	*	*	*
2C/	-nit	1E	.	2rG	.
*	*ij	*	*	*	*
2C/	qui	.	.	2G/	in
1BB-	Ve-	1F	.	1B-	no-
*	*	*Xlig	*	*	*
=52-	=52-	=52-	=52-	=52-	=52-
1BB-	-nit	1D	-nit	2B-\	-mi-
*	*Xij	*	*	*	*
.	.	.	.	2B-\	-ne
2rC	.	1F	in	2.A/	Do-
2FF/	in	.	.	.	.
.	.	.	.	4A/	-mi-
=53-	=53-	=53-	=53-	=53-	=53-
!	!	!	!	!LO:SIC:v:t=custos E	!
2.C/	no-	1E	no-	1G	-ni
4C/	-mi-	.	.	.	.
!	!	!	!	!LO:LB:g=original	!
2GG/	-ne	1G	-mi-	2r	.
*	*ij	*	*	*	*ij
2C/	in	.	.	2E/	in
=54-	=54-	=54-	=54-	=54-	=54-
2.FF/	no-	1A	-ne	2.F/	Do-
4FF/	-mi-	.	.	4F/	-mi-
!	!	!	!	!LO:TX:b:i:t=Oſanna vt Supra.	!
1GG	-ne	1G	Do-	1B-	-ni
*	*Xij	*	*	*	*Xij
=55-	=55-	=55-	=55-	=55-	=55-
!	!	!LO:TX:a:t=P:problem:# above	!	!LO:TX:t=P:problem:skreślony zapis	!
2.D/	Do-	1F#X	-mi-	0ryy	.
4D/	-mi-	.	.	.	.
!LO:TX:b:i:t=Oſana Vt ſupra.	!	!LO:TX:b:i:t=Oſana\nVt ſupr.	!	!	!
1GGl;	-ni.	1Gl;	-ni.	.	.
==	==	==	==	==	==
*-	*-	*-	*-	*-	*-
!!!system-decoration: [(s1,s2,s3)]
!!!RDF**kern: > = above
!!!RDF**kern: < = below
!!!RDF**kern: l = terminal long
!!!ENC: Andrzej Kubiczek
!!!END: 2021-07-05
!!!ENC: Krzysztof Stępień
!!!END: 2021-06-22
